svgs/light/file.svg

<svg xmlns="http://www.w3.org/2000/svg" viewBox="0 0 384 512"><!--! Font Awesome Pro 6.3.0 by @fontawesome - https://fontawesome.com License - https://fontawesome.com/license (Commercial License) Copyright 2023 Fonticons, Inc. --><path d="M0 64C0 28.65 28.65 0 64 0H220.1C232.8 0 245.1 5.057 254.1 14.06L369.9 129.9C378.9 138.9 384 151.2 384 163.9V448C384 483.3 355.3 512 320 512H64C28.65 512 0 483.3 0 448V64zM352 192H240C213.5 192 192 170.5 192 144V32H64C46.33 32 32 46.33 32 64V448C32 465.7 46.33 480 64 480H320C337.7 480 352 465.7 352 448V192zM347.3 152.6L231.4 36.69C229.4 34.62 226.8 33.18 224 32.48V144C224 152.8 231.2 160 240 160H351.5C350.8 157.2 349.4 154.6 347.3 152.6z"/></svg>

<svg xmlns="http://www.w3.org/2000/svg" viewBox="0 0 384 512"><!--! Font Awesome Pro 6.4.0 by @fontawesome - https://fontawesome.com License - https://fontawesome.com/license (Commercial License) Copyright 2023 Fonticons, Inc. --><path d="M352 448V192H240c-26.5 0-48-21.5-48-48V32H64C46.3 32 32 46.3 32 64V448c0 17.7 14.3 32 32 32H320c17.7 0 32-14.3 32-32zm-.5-288c-.7-2.8-2.1-5.4-4.2-7.4L231.4 36.7c-2.1-2.1-4.6-3.5-7.4-4.2V144c0 8.8 7.2 16 16 16H351.5zM0 64C0 28.7 28.7 0 64 0H220.1c12.7 0 24.9 5.1 33.9 14.1L369.9 129.9c9 9 14.1 21.2 14.1 33.9V448c0 35.3-28.7 64-64 64H64c-35.3 0-64-28.7-64-64V64z"/></svg>
